Numix/16/status/indicator-keyboard-Ar-3.svg

<?xml version="1.0" encoding="UTF-8" standalone="no"?>
<svg
   xmlns:dc="http://purl.org/dc/elements/1.1/"
   xmlns:cc="http://creativecommons.org/ns#"
   xmlns:rdf="http://www.w3.org/1999/02/22-rdf-syntax-ns#"
   xmlns:svg="http://www.w3.org/2000/svg"
   xmlns="http://www.w3.org/2000/svg"
   xmlns:sodipodi="http://sodipodi.sourceforge.net/DTD/sodipodi-0.dtd"
   xmlns:inkscape="http://www.inkscape.org/namespaces/inkscape"
   viewBox="0 0 16 16"
   id="svg2"
   version="1.1"
   inkscape:version="0.91 r13725"
   sodipodi:docname="indicator-keyboard-Ar-3.svg">
  <metadata
     id="metadata14">
    <rdf:RDF>
      <cc:Work
         rdf:about="">
        <dc:format>image/svg+xml</dc:format>
        <dc:type
           rdf:resource="http://purl.org/dc/dcmitype/StillImage" />
      </cc:Work>
    </rdf:RDF>
  </metadata>
  <defs
     id="defs12" />
  <sodipodi:namedview
     pagecolor="#ffffff"
     bordercolor="#666666"
     borderopacity="1"
     objecttolerance="10"
     gridtolerance="10"
     guidetolerance="10"
     inkscape:pageopacity="0"
     inkscape:pageshadow="2"
     inkscape:window-width="640"
     inkscape:window-height="480"
     id="namedview10"
     showgrid="false"
     inkscape:zoom="14.75"
     inkscape:cx="8"
     inkscape:cy="8"
     inkscape:window-x="65"
     inkscape:window-y="24"
     inkscape:window-maximized="0"
     inkscape:current-layer="svg2" />
  <path
     style="fill:#ececec;fill-opacity:1"
     d="M 1.5996094 0 C 0.71320937 2.9605947e-16 0 0.71320937 0 1.5996094 L 0 14.400391 C 2.9605947e-16 15.286791 0.71320937 16 1.5996094 16 L 14.400391 16 C 15.286791 16 16 15.286791 16 14.400391 L 16 1.5996094 C 16 0.71320937 15.286791 0 14.400391 0 L 1.5996094 0 z M 4.59375 4.859375 L 5.1328125 4.859375 C 5.3548125 5.321375 5.5656719 5.7821406 5.7636719 6.2441406 C 5.9616719 6.7061406 6.1594219 7.1893594 6.3574219 7.6933594 C 6.5614219 8.1913594 6.7685156 8.7231094 6.9785156 9.2871094 C 7.1885156 9.8451096 7.4161094 10.447703 7.6621094 11.095703 L 6.9882812 11.095703 C 6.8742813 10.789703 6.7660625 10.496844 6.6640625 10.214844 C 6.5620625 9.9328435 6.4631875 9.6567188 6.3671875 9.3867188 L 3.3339844 9.3867188 C 3.2319844 9.6567187 3.1293437 9.9328436 3.0273438 10.214844 C 2.9253437 10.496844 2.8208906 10.789703 2.7128906 11.095703 L 2.0742188 11.095703 C 2.3142187 10.447703 2.5380469 9.8451096 2.7480469 9.2871094 C 2.9580469 8.7231094 3.1633281 8.1913594 3.3613281 7.6933594 C 3.5653281 7.1893594 3.7648906 6.7061406 3.9628906 6.2441406 C 4.1608906 5.7821406 4.37175 5.321375 4.59375 4.859375 z M 4.8457031 5.5605469 C 4.6177031 6.0765469 4.3956875 6.6027187 4.1796875 7.1367188 C 3.9696875 7.6707187 3.7514375 8.2452813 3.5234375 8.8632812 L 6.1777344 8.8632812 C 5.9497344 8.2452813 5.7277187 7.6707187 5.5117188 7.1367188 C 5.2957188 6.6027188 5.0737031 6.0765469 4.8457031 5.5605469 z M 10.107422 6.3535156 C 10.299422 6.3535156 10.478484 6.3684375 10.646484 6.3984375 C 10.820484 6.4284375 10.941812 6.4582812 11.007812 6.4882812 L 10.890625 6.9921875 C 10.842625 6.9681875 10.74375 6.9439219 10.59375 6.9199219 C 10.44975 6.8899219 10.257578 6.875 10.017578 6.875 C 9.7655781 6.875 9.5602969 6.8936875 9.4042969 6.9296875 C 9.2542969 6.9656875 9.1554219 6.9955312 9.1074219 7.0195312 L 9.1074219 11.095703 L 8.5234375 11.095703 L 8.5234375 6.6582031 C 8.6734375 6.5922031 8.8805312 6.5269375 9.1445312 6.4609375 C 9.4085312 6.3889375 9.7294218 6.3535156 10.107422 6.3535156 z M 12.556641 8.7539062 C 12.759441 8.7539062 12.933825 8.7793781 13.078125 8.8300781 C 13.226325 8.8807781 13.349766 8.953275 13.447266 9.046875 C 13.544766 9.136575 13.617263 9.2463 13.664062 9.375 C 13.710862 9.4997999 13.732422 9.6350031 13.732422 9.7832031 C 13.732422 10.021103 13.669716 10.217041 13.541016 10.369141 C 13.416216 10.517341 13.253588 10.625106 13.054688 10.691406 C 13.163888 10.718706 13.269694 10.759859 13.371094 10.818359 C 13.476394 10.872959 13.570444 10.945456 13.652344 11.035156 C 13.734244 11.120956 13.798909 11.226762 13.849609 11.351562 C 13.900309 11.476363 13.925781 11.623316 13.925781 11.791016 C 13.925781 11.962616 13.894431 12.119372 13.832031 12.263672 C 13.773531 12.407972 13.685353 12.535331 13.564453 12.644531 C 13.447453 12.749831 13.296581 12.834084 13.113281 12.896484 C 12.929981 12.954984 12.71445 12.984375 12.46875 12.984375 C 12.34005 12.984375 12.222481 12.974578 12.113281 12.955078 C 12.007981 12.939478 11.913931 12.919884 11.832031 12.896484 C 11.750131 12.873084 11.679594 12.849572 11.621094 12.826172 C 11.566494 12.802772 11.525347 12.783178 11.498047 12.767578 L 11.597656 12.427734 C 11.621056 12.443334 11.660244 12.462928 11.714844 12.486328 C 11.769444 12.509728 11.834103 12.533241 11.908203 12.556641 C 11.986203 12.576141 12.072416 12.593775 12.166016 12.609375 C 12.263516 12.624975 12.367369 12.632813 12.480469 12.632812 C 12.850969 12.632812 13.117444 12.556397 13.277344 12.404297 C 13.437244 12.248297 13.517578 12.040597 13.517578 11.779297 C 13.517578 11.607697 13.484269 11.464662 13.417969 11.351562 C 13.355569 11.238462 13.267397 11.148331 13.154297 11.082031 C 13.045097 11.011831 12.915778 10.962847 12.767578 10.935547 C 12.623278 10.904347 12.470441 10.888672 12.306641 10.888672 L 12.248047 10.888672 L 12.248047 10.574219 L 12.382812 10.574219 C 12.488113 10.574219 12.593925 10.564422 12.703125 10.544922 C 12.816225 10.521522 12.918113 10.480375 13.007812 10.421875 C 13.101412 10.363375 13.177828 10.285 13.236328 10.1875 C 13.298728 10.09 13.330078 9.9646001 13.330078 9.8125 C 13.330078 9.6838 13.308525 9.5760281 13.265625 9.4863281 C 13.222725 9.3927281 13.163944 9.3182719 13.089844 9.2636719 C 13.019644 9.2090719 12.935391 9.1698844 12.837891 9.1464844 C 12.744291 9.1191844 12.644363 9.1054687 12.539062 9.1054688 C 12.328462 9.1054688 12.165828 9.1348594 12.048828 9.1933594 C 11.931828 9.2518594 11.835819 9.3067219 11.761719 9.3574219 L 11.597656 9.0585938 C 11.636656 9.0312937 11.685641 8.9999437 11.744141 8.9648438 C 11.806541 8.9297437 11.879037 8.8964344 11.960938 8.8652344 C 12.042838 8.8340344 12.132969 8.8085625 12.230469 8.7890625 C 12.331869 8.7656625 12.439641 8.7539062 12.556641 8.7539062 z "
     id="path4" />
</svg>

<svg xmlns="http://www.w3.org/2000/svg" viewBox="0 0 16 16">
 <path d="m 1.6 0 c -0.886 0 -1.6 0.713 -1.6 1.6 l 0 12.801 c 0 0.886 0.713 1.6 1.6 1.6 l 12.801 0 c 0.886 0 1.6 -0.713 1.6 -1.6 l 0 -12.801 c 0 -0.886 -0.713 -1.6 -1.6 -1.6 l -12.801 0 z m 2.994 4.859 l 0.539 0 c 0.222 0.462 0.433 0.923 0.631 1.385 c 0.198 0.462 0.396 0.945 0.594 1.449 c 0.204 0.498 0.411 1.03 0.621 1.594 c 0.21 0.558 0.438 1.161 0.684 1.809 l -0.674 0 c -0.114 -0.306 -0.222 -0.599 -0.324 -0.881 c -0.102 -0.282 -0.201 -0.558 -0.297 -0.828 l -3.033 0 c -0.102 0.27 -0.205 0.546 -0.307 0.828 c -0.102 0.282 -0.206 0.575 -0.314 0.881 l -0.639 0 c 0.24 -0.648 0.464 -1.251 0.674 -1.809 c 0.21 -0.564 0.415 -1.096 0.613 -1.594 c 0.204 -0.504 0.404 -0.987 0.602 -1.449 c 0.198 -0.462 0.409 -0.923 0.631 -1.385 z m 0.252 0.701 c -0.228 0.516 -0.45 1.042 -0.666 1.576 c -0.21 0.534 -0.428 1.109 -0.656 1.727 l 2.654 0 c -0.228 -0.618 -0.45 -1.193 -0.666 -1.727 c -0.216 -0.534 -0.438 -1.06 -0.666 -1.576 z m 5.262 0.793 c 0.192 0 0.371 0.015 0.539 0.045 c 0.174 0.03 0.295 0.06 0.361 0.09 l -0.117 0.504 c -0.048 -0.024 -0.147 -0.048 -0.297 -0.072 c -0.144 -0.03 -0.336 -0.045 -0.576 -0.045 c -0.252 0 -0.457 0.019 -0.613 0.055 c -0.15 0.036 -0.249 0.066 -0.297 0.09 l 0 4.076 l -0.584 0 l 0 -4.437 c 0.15 -0.066 0.357 -0.131 0.621 -0.197 c 0.264 -0.072 0.585 -0.107 0.963 -0.107 z m 2.449 2.4 c 0.203 0 0.377 0.025 0.521 0.076 c 0.148 0.051 0.272 0.123 0.369 0.217 c 0.097 0.09 0.17 0.199 0.217 0.328 c 0.047 0.125 0.068 0.26 0.068 0.408 c 0 0.238 -0.063 0.434 -0.191 0.586 c -0.125 0.148 -0.287 0.256 -0.486 0.322 c 0.109 0.027 0.215 0.068 0.316 0.127 c 0.105 0.055 0.199 0.127 0.281 0.217 c 0.082 0.086 0.147 0.192 0.197 0.316 c 0.051 0.125 0.076 0.272 0.076 0.439 c 0 0.172 -0.031 0.328 -0.094 0.473 c -0.059 0.144 -0.147 0.272 -0.268 0.381 c -0.117 0.105 -0.268 0.19 -0.451 0.252 c -0.183 0.059 -0.399 0.088 -0.645 0.088 c -0.129 0 -0.246 -0.01 -0.355 -0.029 c -0.105 -0.016 -0.199 -0.035 -0.281 -0.059 c -0.082 -0.023 -0.152 -0.047 -0.211 -0.07 c -0.055 -0.023 -0.096 -0.043 -0.123 -0.059 l 0.1 -0.34 c 0.023 0.016 0.063 0.035 0.117 0.059 c 0.055 0.023 0.119 0.047 0.193 0.07 c 0.078 0.019 0.164 0.037 0.258 0.053 c 0.097 0.016 0.201 0.023 0.314 0.023 c 0.37 0 0.637 -0.076 0.797 -0.229 c 0.16 -0.156 0.24 -0.364 0.24 -0.625 c 0 -0.172 -0.033 -0.315 -0.1 -0.428 c -0.062 -0.113 -0.151 -0.203 -0.264 -0.27 c -0.109 -0.07 -0.239 -0.119 -0.387 -0.146 c -0.144 -0.031 -0.297 -0.047 -0.461 -0.047 l -0.059 0 l 0 -0.314 l 0.135 0 c 0.105 0 0.211 -0.01 0.32 -0.029 c 0.113 -0.023 0.215 -0.065 0.305 -0.123 c 0.094 -0.059 0.17 -0.137 0.229 -0.234 c 0.062 -0.098 0.094 -0.223 0.094 -0.375 c 0 -0.129 -0.022 -0.236 -0.064 -0.326 c -0.043 -0.094 -0.102 -0.168 -0.176 -0.223 c -0.07 -0.055 -0.154 -0.094 -0.252 -0.117 c -0.094 -0.027 -0.194 -0.041 -0.299 -0.041 c -0.211 0 -0.373 0.029 -0.49 0.088 c -0.117 0.059 -0.213 0.113 -0.287 0.164 l -0.164 -0.299 c 0.039 -0.027 0.088 -0.059 0.146 -0.094 c 0.062 -0.035 0.135 -0.068 0.217 -0.1 c 0.082 -0.031 0.172 -0.057 0.27 -0.076 c 0.101 -0.023 0.209 -0.035 0.326 -0.035 z" style="fill:#ececec;fill-opacity:1"/>
</svg>
